public/logos/shopify.svg

<svg fill="none" height="61" viewBox="0 0 215 61" width="215" xmlns="http://www.w3.org/2000/svg">
 <path d="M74.0322 33.8637C72.1913 32.8648 71.2452 32.0228 71.2452 30.8654C71.2452 29.3927 72.5594 28.4466 74.6117 28.4466C77.0007 28.4466 79.1338 29.4455 79.1338 29.4455L80.8162 24.291C80.8162 24.291 79.2692 23.0808 74.7157 23.0808C68.379 23.0808 63.9873 26.7097 63.9873 31.8114C63.9873 34.704 66.0379 36.9131 68.7736 38.4898C70.9827 39.7512 71.7719 40.6461 71.7719 41.9603C71.7719 43.3274 70.6674 44.4319 68.6168 44.4319C65.5607 44.4319 62.6747 42.8535 62.6747 42.8535L60.8867 48.008C60.8867 48.008 63.5531 49.7961 68.0389 49.7961C74.5605 49.7961 79.2412 46.5881 79.2412 40.8029C79.2395 37.7023 76.8736 35.4932 74.0322 33.8637Z" fill="black"/>
 <path d="M100.013 23.0296C96.8048 23.0296 94.2804 24.5552 92.3355 26.8683L92.2298 26.8154L95.0167 12.2484H87.7588L80.7122 49.3239H87.9701L90.3889 36.6506C91.3349 31.8643 93.8065 28.9205 96.1213 28.9205C97.7508 28.9205 98.3832 30.025 98.3832 31.6034C98.3832 32.6023 98.2775 33.8125 98.0678 34.8114L95.3337 49.3256H102.592L105.431 34.3375C105.747 32.7591 105.958 30.8671 105.958 29.604C105.955 25.5012 103.799 23.0296 100.013 23.0296Z" fill="black"/>
 <path d="M122.363 23.0296C113.632 23.0296 107.849 30.9183 107.849 39.7001C107.849 45.3268 111.319 49.849 117.841 49.849C126.413 49.849 132.198 42.1717 132.198 33.1785C132.198 27.9728 129.147 23.0296 122.363 23.0296ZM118.787 44.2767C116.315 44.2767 115.263 42.1733 115.263 39.5432C115.263 35.3892 117.42 28.6052 121.364 28.6052C123.941 28.6052 124.781 30.8142 124.781 32.9705C124.781 37.4398 122.627 44.2767 118.787 44.2767Z" fill="black"/>
 <path d="M150.762 23.0296C145.863 23.0296 143.083 27.3421 143.083 27.3421H142.979L143.4 23.4506H136.984C136.669 26.0807 136.089 30.0762 135.512 33.0745L130.463 59.6313H137.721L139.718 48.9029H139.877C139.877 48.9029 141.366 49.849 144.137 49.849C152.656 49.849 158.23 41.12 158.23 32.2837C158.23 27.395 156.073 23.0296 150.762 23.0296ZM143.82 44.3807C141.936 44.3807 140.821 43.329 140.821 43.329L142.031 36.545C142.873 32.0228 145.239 29.0245 147.764 29.0245C149.973 29.0245 150.656 31.0751 150.656 33.0217C150.656 37.7023 147.869 44.3807 143.82 44.3807Z" fill="black"/>
 <path d="M168.59 12.6166C166.277 12.6166 164.436 14.4575 164.436 16.8234C164.436 18.9797 165.803 20.4524 167.854 20.4524H167.959C170.221 20.4524 172.166 18.9268 172.219 16.2456C172.219 14.1421 170.799 12.6166 168.59 12.6166Z" fill="black"/>
 <path d="M158.441 49.3239H165.697L170.642 23.6091H163.331L158.441 49.3239Z" fill="black"/>
 <path d="M189.101 23.5563H184.052L184.314 22.3461C184.735 19.8745 186.208 17.6654 188.627 17.6654C189.918 17.6654 190.94 18.0336 190.94 18.0336L192.36 12.3541C192.36 12.3541 191.098 11.7234 188.415 11.7234C185.838 11.7234 183.263 12.4597 181.316 14.1421C178.844 16.2456 177.687 19.295 177.109 22.3461L176.9 23.5563H173.533L172.481 29.0262H175.848L172.009 49.3256H179.267L183.106 29.0262H188.102L189.101 23.5563Z" fill="black"/>
 <path d="M206.56 23.6092C206.56 23.6092 202.023 35.0392 199.986 41.2785H199.88C199.742 39.2692 198.092 23.6092 198.092 23.6092H190.466L194.833 47.2205C194.939 47.7456 194.886 48.0626 194.675 48.4307C193.832 50.0603 192.413 51.6387 190.73 52.7961C189.363 53.7949 187.838 54.4256 186.629 54.8466L188.627 61C190.1 60.6847 193.149 59.4745 195.726 57.0557C199.04 53.9534 202.089 49.1671 205.244 42.6455L214.132 23.6075H206.56V23.6092Z" fill="black"/>
</svg>

<svg xmlns="http://www.w3.org/2000/svg" xmlns:xlink="http://www.w3.org/1999/xlink" viewBox="60.76171875 11.67578125 153.453125 49.32421875" width="68.44444444444444" height="22"><path fill="#000" d="M74.032 33.864c-1.84-1-2.787-1.841-2.787-2.999 0-1.472 1.314-2.418 3.367-2.418 2.389 0 4.522.999 4.522.999l1.682-5.155s-1.547-1.21-6.1-1.21c-6.337 0-10.729 3.629-10.729 8.73 0 2.893 2.05 5.102 4.787 6.679 2.209 1.261 2.998 2.156 2.998 3.47 0 1.367-1.105 2.472-3.155 2.472-3.056 0-5.942-1.579-5.942-1.579l-1.788 5.155s2.666 1.788 7.152 1.788c6.522 0 11.202-3.208 11.202-8.993-.001-3.1-2.367-5.31-5.209-6.94m25.981-10.833c-3.208 0-5.733 1.525-7.678 3.838l-.105-.053 2.787-14.567h-7.258l-7.047 37.076h7.258l2.42-12.674c.946-4.787 3.418-7.73 5.732-7.73 1.63 0 2.262 1.104 2.262 2.682 0 1-.105 2.21-.315 3.208l-2.734 14.515h7.258l2.839-14.989c.316-1.578.527-3.47.527-4.733-.003-4.103-2.159-6.574-5.945-6.574m22.349.001c-8.731 0-14.514 7.888-14.514 16.67 0 5.627 3.47 10.149 9.992 10.149 8.572 0 14.357-7.677 14.357-16.67 0-5.206-3.051-10.15-9.835-10.15m-3.576 21.247c-2.472 0-3.524-2.104-3.524-4.734 0-4.154 2.157-10.938 6.101-10.938 2.577 0 3.417 2.21 3.417 4.366 0 4.469-2.154 11.306-5.994 11.306m31.975-21.246c-4.899 0-7.679 4.312-7.679 4.312h-.104l.421-3.891h-6.416c-.315 2.63-.895 6.625-1.472 9.624l-5.049 26.556h7.258l1.997-10.728h.159s1.489.946 4.26.946c8.519 0 14.093-8.729 14.093-17.565 0-4.889-2.157-9.254-7.468-9.254m-6.942 21.35c-1.884 0-2.999-1.051-2.999-1.051l1.21-6.784c.842-4.522 3.208-7.52 5.733-7.52 2.209 0 2.892 2.05 2.892 3.997 0 4.68-2.787 11.359-6.836 11.359m24.77-31.764c-2.313 0-4.154 1.84-4.154 4.206 0 2.157 1.367 3.63 3.418 3.63h.105c2.262 0 4.207-1.526 4.26-4.207 0-2.104-1.42-3.63-3.629-3.63m-10.149 36.708h7.256l4.945-25.715h-7.311zm30.66-25.768h-5.049l.262-1.21c.421-2.471 1.894-4.68 4.313-4.68a7.6 7.6 0 0 1 2.313.368l1.42-5.68s-1.262-.63-3.945-.63c-2.577 0-5.152.736-7.099 2.418-2.472 2.104-3.629 5.153-4.207 8.204l-.209 1.21h-3.367l-1.052 5.47h3.367l-3.839 20.3h7.258l3.839-20.3h4.996zm17.459.054s-4.537 11.43-6.574 17.669h-.106c-.138-2.01-1.788-17.67-1.788-17.67h-7.626l4.367 23.612c.106.525.053.842-.158 1.21-.843 1.63-2.262 3.208-3.945 4.365-1.367.999-2.892 1.63-4.101 2.05L188.627 61c1.473-.315 4.522-1.526 7.099-3.944 3.314-3.103 6.363-7.889 9.518-14.41l8.888-19.038h-7.572z"/></svg>
